X:8335
T:Jump At The Sun
R:jig
C:John Kirkpatrick
S:Tom Doherty
H:
N:
D:
Z:Adrian Scahill
M:6/8
L:1/8
K:G
EGB ^A2B|EGB ^A2B|eBB eBB|BAG F3|\
EGB ^A2B|EGB ^A2B|eBB cBA|GBF E3:||\
eBB gfe|fBB agf|gfe gfe|fBB cBB|\
eBB gfe|fBB agf|eBB cBA|GBF E3:||
